X:1012
T:Anglais efter Sven Thörn 
T:(SvL Skåne nr. 694)
S:efter Sven Thörn
O:Eslöv, Skåne
B:Svenska Låtar Skåne
Z:Patrik Månsson, 2009-01-14
R:Anglais
M:2/4
L:1/16
K:G
|:G2BA G2BA | G2Bd g2g2 | [ec]2[ec][ec] B2B2 | A2AF G4 :|
|: g2g2 afdf | a2a2 b2fg | [ec]>[ec][ec]>[ec] B>BB>B | AcAF G4 :|
(:musicend:)

Text: 
->Veten är huggen, rågen är höstad,
->nu kör vi in med det allra sista lass.
->Sen plocka vi ax så nätt,
->så plocka vi ax så tätt;
->fågeln ska ha något till vinterföda då

Thörn har lärt melodien av skräddaren Hans Larsson, i Högestad socken.
(:music:)
